X:1
T:Title
%%score ( 1 2 )
L:1/8
Q:1/4=120
M:none
K:C
V:1 treble nm="Part_1"
V:2 treble 
V:1
 !>!e4 |!p! (G2!<(! A B2!<)!!p! d2 x | e''4!>(! e2 z2 c!>)! d4) | %3
 (g!<(! d2) d (!tenuto!a d2)!<)! (d |!mp! b2 d'/c'/b/a/ g4) || %5
[K:Bb][K:treble+8] z d'2- e' d'(bgb) |!<(! !tenuto!d'2 !tenuto!=e'2!<)! !tenuto![e'f']4!mf! (d' | %7
 g') (!tenuto!d'2 b ab g2) | d2 (b/a/g/^f/!>)!!>(! g4) |!mf! !wedge!!^!B z c z d z x2 | c4 A2 x2 | %11
 (B2 c d f x3 | g) z !>!f4 x2 | (A2 B c f x3 | g) z !>!f4 x2 | (b2 c') z (3bag x2 | f4 z2 x2 | %17
!f! !>!d'4 a2 x2 | (bc') d'e' f' z x2 | (ab) c'd' e' z x2 | (g'f' e'd' c'b x2 | a) z f4 x2 | %22
 b z d-e d z x2 | !>!d' z d-e d z x2 | (fg) fe dc x2 | B4 z2 x2 |!mp! (3(ede g) z e z x2 | %27
 (3(dcd f4) x2 | (3(!>!a!>!ga c') z a z x2 | (3(bab d'4) x2 |!mf! b z c' z d' z | c'4 a2 x2 | %32
 b!<(!(a b)c' d'!<)!e' x2 | f'4 z2 x2 | g'!>(!(f' e')d' c'b x2 | a z f z!>)! a z x2 | %36
!mp! b z z d f z x2 | B z z2 z2 x2 |]!mf! b z c' z d' z x2 | e'(d' c')b ag x2 | %40
!<(! f-=e fa c'!<)!=e' x2 | f'2 z2 _e'2 x2 |!f! (d'f') z d' z (b x2 | a) z !>!f'4 x2 | %44
 (f!>(!^f g^g a!>)!c' x2 | b) z B z z2 x2 |] %46
V:2
 x4 | x8 | x13 | x8 | x8 ||[K:Bb][K:treble+8] x4 G,,4 | x4 =e'4 x | x8 | x8 | x8 | x8 | x8 | x8 | %13
 x8 | x8 | x8 | x8 | x8 | x8 | x8 | x8 | x8 | x8 | x8 | x8 | x8 | x8 | x8 | x8 | x8 | x6 | x8 | %32
 x8 | x8 | x8 | x8 | x8 | x8 |] x8 | x8 | x8 | x8 | x8 | x8 | x8 | x8 |] %46

